src/assets/knight-black.svg

<svg xmlns="http://www.w3.org/2000/svg" viewBox="0 0 512 512"><g class="" style="" transform="translate(0,0)"><path d="M60.81 476.91h300v-60h-300v60zm233.79-347.3l13.94 7.39c31.88-43.62 61.34-31.85 61.34-31.85l-21.62 53 35.64 19 2.87 33 64.42 108.75-43.55 29.37s-26.82-36.39-39.65-43.66c-10.66-6-41.22-10.25-56.17-12l-67.54-76.91-12 10.56 37.15 42.31c-.13.18-.25.37-.38.57-35.78 58.17 23 105.69 68.49 131.78H84.14C93 85 294.6 129.61 294.6 129.61z" fill="#000000" fill-opacity="1" stroke="#ffffff" stroke-width="6"></path></g></svg>

<?xml version="1.0" encoding="UTF-8" standalone="no"?>
<!DOCTYPE svg PUBLIC "-//W3C//DTD SVG 1.1//EN" "http://www.w3.org/Graphics/SVG/1.1/DTD/svg11.dtd">
<svg width="100%" height="100%" viewBox="0 0 391 374" version="1.1" xmlns="http://www.w3.org/2000/svg" xmlns:xlink="http://www.w3.org/1999/xlink" xml:space="preserve" style="fill-rule:evenodd;clip-rule:evenodd;stroke-linejoin:round;stroke-miterlimit:2;">
    <g transform="matrix(1,0,0,1,-60.81,-103.704)">
        <path d="M60.81,476.91L360.81,476.91L360.81,416.91L60.81,416.91L60.81,476.91ZM294.6,129.61L308.54,137C340.42,93.38 369.88,105.15 369.88,105.15L348.26,158.15L383.9,177.15L386.77,210.15L451.19,318.9L407.64,348.27C407.64,348.27 380.82,311.88 367.99,304.61C357.33,298.61 326.77,294.36 311.82,292.61L244.28,215.7L232.28,226.26L269.43,268.57C269.3,268.75 269.18,268.94 269.05,269.14C233.27,327.31 292.05,374.83 337.54,400.92L84.14,400.92C93,85 294.6,129.61 294.6,129.61Z" style="fill-rule:nonzero;stroke:white;stroke-width:5.33px;"/>
    </g>
</svg>
